icons/bag-help-outline.svg

<svg xmlns="http://www.w3.org/2000/svg" width="24" height="24" viewBox="0 0 24 24">
  <path d="M14,2 C15.5976809,2 16.9036609,3.24891996 16.9949073,4.82372721 L17,5 L17,6 L19,6 C20.5976809,6 21.9036609,7.24891996 21.9949073,8.82372721 L22,9 L22,19 C22,20.5976809 20.75108,21.9036609 19.1762728,21.9949073 L19,22 L5,22 C3.40231912,22 2.09633912,20.75108 2.00509269,19.1762728 L2,19 L2,9 C2,7.40231912 3.24891996,6.09633912 4.82372721,6.00509269 L5,6 L7,6 L7,5 C7,3.40231912 8.24891996,2.09633912 9.82372721,2.00509269 L10,2 L14,2 Z M19,8 L5,8 C4.48716416,8 4.06449284,8.38604019 4.00672773,8.88337887 L4,9 L4,19 C4,19.5128358 4.38604019,19.9355072 4.88337887,19.9932723 L5,20 L19,20 C19.5128358,20 19.9355072,19.6139598 19.9932723,19.1166211 L20,19 L20,9 C20,8.44771525 19.5522847,8 19,8 Z M12.0001686,16 C12.5524586,16 13.0001686,16.4477 13.0001686,17 C13.0001686,17.5523 12.5524586,18 12.0001686,18 C11.4478886,18 11.0001686,17.5523 11.0001686,17 C11.0001686,16.4477 11.4478886,16 12.0001686,16 Z M12.0001686,10 C12.5537486,10 13.1555886,10.16344 13.6376686,10.525 C14.1397686,10.90158 14.5001686,11.48991 14.5001686,12.25 C14.5001686,12.69838 14.3847686,13.07994 14.1710686,13.4004 C13.9664386,13.70737 13.7009186,13.91339 13.4787086,14.06154 C13.3700286,14.134 13.2594286,14.20036 13.1657686,14.25656 L13.1657686,14.25656 C13.0591686,14.32052 12.9769786,14.37001 12.9005986,14.42093 C12.7478286,14.52279 12.6695886,14.59803 12.6242286,14.66609 C12.3944886,15.01075 11.9288386,15.10391 11.5841786,14.87417 C11.2395186,14.64442 11.1463586,14.17878 11.3760986,13.83412 C11.5807386,13.52712 11.8462486,13.32107 12.0684786,13.1729 C12.1772086,13.10041 12.2878586,13.03402 12.3815586,12.9778 L12.3815586,12.9778 C12.4880486,12.9139 12.5702386,12.86441 12.6466286,12.81349 C12.7994086,12.71162 12.8776486,12.63639 12.9229986,12.56835 C12.9593586,12.51381 13.0001686,12.42662 13.0001686,12.25 C13.0001686,12.01009 12.9022286,11.84842 12.7376686,11.725 C12.5530786,11.58656 12.2799186,11.5 12.0001686,11.5 C11.6314086,11.5 11.4046986,11.59004 11.2599386,11.68654 C11.1104886,11.78617 11.0014986,11.92438 10.9209886,12.08541 C10.7357486,12.45589 10.2852386,12.60606 9.91475858,12.42082 C9.54426858,12.23558 9.39409858,11.78507 9.57934858,11.41459 C9.74882858,11.07562 10.0148386,10.71383 10.4278886,10.43846 C10.8456386,10.15996 11.3689286,10 12.0001686,10 Z M14,4 L10,4 C9.48716416,4 9.06449284,4.38604019 9.00672773,4.88337887 L9,5 L9,6 L15,6 L15,5 C15,4.48716416 14.6139598,4.06449284 14.1166211,4.00672773 L14,4 Z"/>
</svg>

<svg xmlns="http://www.w3.org/2000/svg" viewBox="0 0 24 24">
  <path d="M14 2a3 3 0 0 1 3 2.82V6h2a3 3 0 0 1 3 2.82V19a3 3 0 0 1-2.82 3H5a3 3 0 0 1-3-2.82V9a3 3 0 0 1 2.82-3H7V5a3 3 0 0 1 2.82-3H14zm5 6H5a1 1 0 0 0-1 .88V19a1 1 0 0 0 .88 1H19a1 1 0 0 0 1-.88V9a1 1 0 0 0-1-1zm-7 8a1 1 0 1 1 0 2 1 1 0 0 1 0-2zm0-6c.55 0 1.16.16 1.64.53.5.37.86.96.86 1.72a2.03 2.03 0 0 1-1.02 1.81l-.31.2-.27.16a.96.96 0 0 0-.28.25.75.75 0 0 1-1.24-.84c.2-.3.47-.5.69-.66l.31-.2c.1-.06.19-.1.27-.16.15-.1.23-.17.27-.24a.54.54 0 0 0 .08-.32c0-.24-.1-.4-.26-.53a1.26 1.26 0 0 0-.74-.22c-.37 0-.6.09-.74.19a1 1 0 0 0-.34.4.75.75 0 0 1-1.34-.68c.17-.33.43-.7.85-.97.42-.28.94-.44 1.57-.44zm2-6h-4a1 1 0 0 0-1 .88V6h6V5a1 1 0 0 0-.88-1H14z"/>
</svg>
